X:553
T:Reel 553
M:4/4
K:Gmaj
L:1/8
dc|BAGA BcdB|cedc BGGA|BAGF GABc|defd g2dc|BAGA BcdB|cedc BGG2|BAGA Bcdc'|bd'af g2|ga|bagf gfdB|cedc BGGc'|bgaf gfdc'|bd'af g2ga|bagf gfdB|cedc BGGA|BAGA Bcdc'|bd'af g2|
